X:588
T:Tipperary.
T:tiobra.d-arainn
N:"Lively" "Collected from F. O'Neill."
B:O'Neill's 588
Z:Transcribed by John B. Walsh (walsh@math.ubc.ca)
M:6/8
<START_ANN> %Q:110 <END_ANN>
K:G
D|GAG ded|GAG FED|GFG EFG|ABG E2D|
GAG ded|GAG FED|GFG AB dc|BAF G2||
B|BcB efe|dcB A2 A|ABc cBA|BGA B2B|
BcB efe|dcB A2 A|ABc BAB|GEF E2||
D/D/|GAG ded|GAG FED|GFG EFG|ABG FED|
GBd gde|dcB AHe2|ded GAB|cAF G2||
